src/icons/svg/article.svg

<svg class="icon" viewBox="0 0 1024 1024" xmlns="http://www.w3.org/2000/svg" width="128" height="128"><defs><style/></defs><path d="M1024 128H0V0h1024zM640 384H0V256h640zm384 384H0V640h1024zm-256 256H0V896h768zm256-64c0 35.36-28.704 64-63.936 64-35.456 0-64.064-28.64-64.064-64s28.608-64 64.064-64c35.232 0 63.936 28.64 63.936 64z"/></svg>

<?xml version="1.0" standalone="no"?><!DOCTYPE svg PUBLIC "-//W3C//DTD SVG 1.1//EN" "http://www.w3.org/Graphics/SVG/1.1/DTD/svg11.dtd"><svg t="1585230582773" class="icon" viewBox="0 0 1024 1024" version="1.1" xmlns="http://www.w3.org/2000/svg" p-id="2212" width="128" height="128" xmlns:xlink="http://www.w3.org/1999/xlink"><defs><style type="text/css"></style></defs><path d="M1024 128 0 128 0 0 1024 0zM640 384 0 384 0 256 640 256zM1024 768 0 768 0 640 1024 640zM768 1024 0 1024 0 896 768 896zM1024 960c0 35.36-28.704 64-63.936 64C924.608 1024 896 995.36 896 960s28.608-64 64.064-64C995.296 896 1024 924.64 1024 960z" p-id="2213"></path></svg>
